X:3551
T:Lass o' Paties Mill
O:england
M:4/4
L:1/8
S:Kerr's Collection
R:Reel
K:D
AF|"D"GFED F2 A2|"D"d3 e f2 A2|"G"Bcdc "D"BAGF|"Em"F4 E2 "A7"AF|"D"GFED
F2 A2|"D"d3 e f2 A2|"G"BcdB "A7"cdef|"D"d4 d2:||:ef|"G"gfed "A7"dcBA|"D"
d3 e f2 A2|"G"Bcdc "D"BAGF|"Em"F4 E2 "A7"AF|"D"GFED F2 A2|"D"d3 e f2 A2|
"G"BcdB "A7"cdef|"D"d4 d2:||
